X:37
T:Cathal McConnell's
T:The Cock And The Hen
M:9/8
L:1/8
R:slip jig
D:Otherworld by Lunasa
D:Playing With Fire by Dervish
K:A
F3 FEF c2A| F3 FEF AFE|F3 FEFc2d|1ecA BAF AFE:|2ecA BAF A (3Bcd)|
|:ecA ABc d(3efa)|ecA ABc BAF|ecA ABc dcB|cBA BAF AFE:|
